public/insta.svg

<svg width="13" height="14" viewBox="0 0 13 14" fill="none" xmlns="http://www.w3.org/2000/svg">
<path d="M9.69397 0.551758H3.45687C1.68103 0.551758 0.234375 1.99842 0.234375 3.77426V10.0114C0.234375 11.7872 1.68103 13.2339 3.45687 13.2339H9.69397C11.4698 13.2339 12.9165 11.7872 12.9165 10.0114V3.77426C12.9165 1.99409 11.4698 0.551758 9.69397 0.551758ZM6.64039 10.739C4.51804 10.739 2.79418 9.01082 2.79418 6.8928C2.79418 4.77479 4.52238 3.0466 6.64039 3.0466C8.76273 3.0466 10.4866 4.77479 10.4866 6.8928C10.4866 9.01082 8.76273 10.739 6.64039 10.739ZM10.7118 3.70062C10.2051 3.70062 9.79792 3.28915 9.79792 2.78672C9.79792 2.28428 10.2094 1.86848 10.7118 1.86848C11.2186 1.86848 11.6257 2.27995 11.6257 2.78672C11.6257 3.29348 11.2186 3.70062 10.7118 3.70062Z" fill="#39FCBF"/>
<path d="M6.57503 4.41162C5.20575 4.41162 4.09375 5.52362 4.09375 6.8929C4.09375 8.26218 5.20575 9.37418 6.57503 9.37418C7.94431 9.37418 9.05631 8.26218 9.05631 6.8929C9.05631 5.52362 7.94431 4.41162 6.57503 4.41162Z" fill="#39FCBF"/>
</svg>

<svg xmlns="http://www.w3.org/2000/svg" width="13" height="14" fill="#39fcbf" xmlns:v="https://vecta.io/nano"><path d="M9.694.552H3.457A3.23 3.23 0 0 0 .234 3.774v6.237a3.23 3.23 0 0 0 3.222 3.223h6.237a3.23 3.23 0 0 0 3.223-3.222V3.774c0-1.78-1.447-3.223-3.223-3.223zM6.64 10.739c-2.122 0-3.846-1.728-3.846-3.846S4.522 3.047 6.64 3.047s3.846 1.728 3.846 3.846-1.724 3.846-3.846 3.846zm4.071-7.038c-.507 0-.914-.411-.914-.914a.92.92 0 0 1 .914-.918c.507 0 .914.411.914.918a.91.91 0 0 1-.914.914zm-4.136.711c-1.369 0-2.481 1.112-2.481 2.481s1.112 2.481 2.481 2.481 2.481-1.112 2.481-2.481-1.112-2.481-2.481-2.481z"/></svg>
